components/Common/Svg/svgs/documentDone.svg

<svg width="40" height="40" viewBox="0 0 40 40" fill="none" xmlns="http://www.w3.org/2000/svg">
<path fill-rule="evenodd" clip-rule="evenodd" d="M20 4.75001C18.6076 4.75001 17.2723 5.30313 16.2877 6.2877C15.3031 7.27226 14.75 8.60762 14.75 10V10.25H25.25V10C25.25 8.60762 24.6969 7.27226 23.7123 6.2877C22.7277 5.30313 21.3924 4.75001 20 4.75001ZM14.8735 4.87348C16.2331 3.51384 18.0772 2.75001 20 2.75001C21.9228 2.75001 23.7669 3.51384 25.1265 4.87348C25.2482 4.99521 25.3652 5.12081 25.4772 5.25001H31.25C31.8467 5.25001 32.419 5.48706 32.841 5.90902C33.2629 6.33098 33.5 6.90327 33.5 7.50001V25.5C33.5 26.0523 33.0523 26.5 32.5 26.5C31.9477 26.5 31.5 26.0523 31.5 25.5V7.50001C31.5 7.4337 31.4737 7.37011 31.4268 7.32323C31.3799 7.27635 31.3163 7.25001 31.25 7.25001H26.7082C27.0626 8.11449 27.25 9.04759 27.25 10V11.25C27.25 11.8023 26.8023 12.25 26.25 12.25H13.75C13.1977 12.25 12.75 11.8023 12.75 11.25V10C12.75 9.04759 12.9374 8.11449 13.2918 7.25001H8.75C8.6837 7.25001 8.62011 7.27635 8.57322 7.32323C8.52634 7.37012 8.5 7.4337 8.5 7.50001V33.75C8.5 33.8163 8.52634 33.8799 8.57322 33.9268C8.62011 33.9737 8.68369 34 8.75 34H18C18.5523 34 19 34.4477 19 35C19 35.5523 18.5523 36 18 36H8.75C8.15326 36 7.58097 35.763 7.15901 35.341C6.73705 34.919 6.5 34.3467 6.5 33.75V7.50001C6.5 6.90327 6.73705 6.33097 7.15901 5.90902C7.58097 5.48706 8.15326 5.25001 8.75 5.25001H14.5228C14.6348 5.12081 14.7518 4.99521 14.8735 4.87348ZM14 18.75C14 18.1977 14.4477 17.75 15 17.75H25C25.5523 17.75 26 18.1977 26 18.75C26 19.3023 25.5523 19.75 25 19.75H15C14.4477 19.75 14 19.3023 14 18.75ZM14 23.75C14 23.1977 14.4477 22.75 15 22.75H25C25.5523 22.75 26 23.1977 26 23.75C26 24.3023 25.5523 24.75 25 24.75H15C14.4477 24.75 14 24.3023 14 23.75ZM36.3825 26.2141C35.8686 25.846 35.1534 25.9644 34.7854 26.4785L27.9112 36.0808L27.9045 36.0901L27.8971 36.0987C27.6496 36.3853 27.3393 36.447 27.1753 36.4578C27.0074 36.469 26.6789 36.448 26.3905 36.1778L26.3867 36.1741L21.9441 31.8384C21.4915 31.397 20.7669 31.4058 20.3254 31.8582C19.8839 32.3106 19.8928 33.0354 20.3453 33.4771L24.7939 37.8184L24.7957 37.8201L24.806 37.8299C25.4264 38.4207 26.2552 38.7493 27.1075 38.7493C27.1811 38.7493 27.2546 38.7468 27.328 38.742C28.2562 38.68 29.1234 38.2283 29.7068 37.5022C29.7198 37.4861 29.7323 37.4697 29.7446 37.4524L36.6471 27.8111C37.0149 27.2971 36.8966 26.5821 36.3825 26.2141Z" fill="#161616"/>
</svg>

<svg width="40" height="40" viewBox="0 0 40 40" fill="none" xmlns="http://www.w3.org/2000/svg"><path fill-rule="evenodd" clip-rule="evenodd" d="M20 4.75A5.25 5.25 0 0 0 14.75 10v.25h10.5V10A5.25 5.25 0 0 0 20 4.75Zm-5.127.123a7.25 7.25 0 0 1 10.604.377h5.773A2.25 2.25 0 0 1 33.5 7.5v18a1 1 0 1 1-2 0v-18a.25.25 0 0 0-.25-.25h-4.542c.355.864.542 1.798.542 2.75v1.25a1 1 0 0 1-1 1h-12.5a1 1 0 0 1-1-1V10c0-.952.187-1.886.542-2.75H8.75a.25.25 0 0 0-.25.25v26.25a.25.25 0 0 0 .25.25H18a1 1 0 1 1 0 2H8.75a2.25 2.25 0 0 1-2.25-2.25V7.5a2.25 2.25 0 0 1 2.25-2.25h5.773c.112-.13.229-.255.35-.377ZM14 18.75a1 1 0 0 1 1-1h10a1 1 0 1 1 0 2H15a1 1 0 0 1-1-1Zm0 5a1 1 0 0 1 1-1h10a1 1 0 1 1 0 2H15a1 1 0 0 1-1-1Zm22.383 2.464a1.145 1.145 0 0 0-1.598.265l-6.874 9.602-.007.01-.007.008a1.04 1.04 0 0 1-.722.359 1.04 1.04 0 0 1-.785-.28l-.003-.004-4.443-4.336a1.145 1.145 0 0 0-1.599 1.64l4.449 4.34.002.002.01.01a3.345 3.345 0 0 0 2.522.912 3.346 3.346 0 0 0 2.417-1.29l6.902-9.64a1.145 1.145 0 0 0-.264-1.598Z" fill="#161616"/></svg>
